src/assets/outline/Vibe.svg

<?xml version="1.0" encoding="UTF-8"?>
<svg width="24" height="24" viewBox="0 0 24 24" xmlns="http://www.w3.org/2000/svg">
 <path d="m12 12.6c-0.24 0-0.46-0.11-0.6-0.3l-2.5-3.33c-0.17-0.23-0.20001-0.53001-0.07001-0.79001s0.38999-0.40999 0.66999-0.40999h5c0.28 0 0.54 0.15999 0.67 0.40999s0.1 0.56001-0.07 0.79001l-2.5 3.33c-0.14 0.19-0.36 0.3-0.6 0.3zm-1-3.33 1 1.33 1-1.33h-2z"/>
 <path d="m12 22.75c-5.93 0-10.75-4.82-10.75-10.75s4.82-10.75 10.75-10.75 10.75 4.82 10.75 10.75-4.82 10.75-10.75 10.75zm0-20c-5.1 0-9.25 4.15-9.25 9.25s4.15 9.25 9.25 9.25 9.25-4.15 9.25-9.25-4.15-9.25-9.25-9.25z"/>
 <path d="m12 17.75c-0.24 0-0.47-0.12-0.61-0.31l-5-7c-0.24-0.34-0.16002-0.80996 0.16998-1.05 0.34-0.24 0.80999-0.16 1.05 0.17l4.39 6.15 4.39-6.15c0.24-0.34 0.71-0.42 1.05-0.17 0.34 0.24 0.42 0.70996 0.17 1.05l-5 7c-0.14 0.19-0.37 0.31-0.61 0.31z"/>
</svg>

<svg width="24" height="24" viewBox="0 0 24 24"  xmlns="http://www.w3.org/2000/svg">
<path d="M12.0001 12.5995C11.7601 12.5995 11.5401 12.4895 11.4001 12.2995L8.90013 8.96953C8.73013 8.73953 8.70012 8.43952 8.83012 8.17952C8.96012 7.91952 9.22011 7.76953 9.50011 7.76953H14.5001C14.7801 7.76953 15.0401 7.92952 15.1701 8.17952C15.3001 8.42952 15.2701 8.73953 15.1001 8.96953L12.6001 12.2995C12.4601 12.4895 12.2401 12.5995 12.0001 12.5995ZM11.0001 9.26953L12.0001 10.5995L13.0001 9.26953H11.0001Z" />
<path d="M12 22.75C6.07 22.75 1.25 17.93 1.25 12C1.25 6.07 6.07 1.25 12 1.25C17.93 1.25 22.75 6.07 22.75 12C22.75 17.93 17.93 22.75 12 22.75ZM12 2.75C6.9 2.75 2.75 6.9 2.75 12C2.75 17.1 6.9 21.25 12 21.25C17.1 21.25 21.25 17.1 21.25 12C21.25 6.9 17.1 2.75 12 2.75Z" />
<path d="M11.9999 17.7502C11.7599 17.7502 11.5299 17.6302 11.3899 17.4402L6.38992 10.4402C6.14992 10.1002 6.2299 9.63024 6.5599 9.39024C6.8999 9.15024 7.36989 9.23024 7.60989 9.56024L11.9999 15.7102L16.3899 9.56024C16.6299 9.22024 17.0999 9.14024 17.4399 9.39024C17.7799 9.63024 17.8599 10.1002 17.6099 10.4402L12.6099 17.4402C12.4699 17.6302 12.2399 17.7502 11.9999 17.7502Z" />
</svg>
